X: 1
T: Reel Di Randone
M: 4/4
L: 1/8
R: reel
K: Amaj
z2|aAAA aAAA|BcB2 A2A2|aAAA aAAA|BcB2 B2B2|
aAAA aAAA|BcB2 A2A2|a2f2 e2A2|BcB2 A2:|
K:D
|:ag|f2fe d2A2|BcB2 A2de|f2a2 agfd|f2e2 e2ag|
f2fe d2A2|BcB2 A2de|fafd egec|d2d2 d2:|
K:A
|:AB|c2c2 cdcB|c2A2 A2de|f2e2 efec|c2B2 B2AB|
c2c2 cdcB|c2A2 A2de|f2e2 efec|B2A2 A2:|
|:AB|c2cB c2e2|fgaf e2Ac|e2e2 efec|c2B2 B2AB|
c2cB c2e2|fgaf e2Ac|e2e2 efec|B2A2 A2:|
